images/icon/price-tag.svg

<svg xmlns="http://www.w3.org/2000/svg" width="1024" height="1024" class="colorable-icon" overflow="visible" viewBox="4.387 13.955 1014.64 996.03"><g fill="none" stroke="#fff" stroke-linecap="round" stroke-linejoin="round" stroke-width="45"><path d="M747.706 361.105c-66.243-64.874-71.871-73.342-83.158-103.793M720.35 116.05c68.642 1.312 97.376 3.765 107.003 5.61 9.794 3.272 24.257 11.15 33.888 18.756 13.201 13.813 23.715 28.317 31.64 43.049 3.511 9.631 5.496 19.264 6.584 33.675l.312 23.976m-235.071 2.494c-3.555-12.192-6.289-26.792-7.474-45.678.934-13.224 2.886-24.566 7.427-42.617l14.745-43.083"/><path d="M900.628 343.329c35.984-27.332 50.491-39.25 60.179-48.596 12.712-14.51 26.239-33.371 37.399-52.955 8.688-19.466 15.095-38.738 19.464-58.028 2.137-19.215 1.816-38.504-1.429-57.662-5.544-19.167-11.845-33.695-24.01-52.997-12-14.02-26.01-26.952-40.429-37.5-14.327-7.869-33.702-15.393-52.65-19.838-19.077-2.223-43.017-2.397-62.182-.455-23.571 5.309-45.407 12.316-64.625 20.52-18.59 10.182-37.908 23.103-57.123 38.435q-10.701 10.197-35.818 37.979m221.931 393.016c-.304 17.319-1.972 23.658-4.907 29.854q-9.514 12.259-42.301 45.463M689.992 745.38l-71.684 72.155M453.215 983.243c-15.375 16.273-20.808 20.54-33.576 26.427-7.169 1.129-20.738-.876-28.272-4.478q-6.806-5.628-19.269-18.629M21.445 635.478C11.06 624.194 7.665 619.187 4.387 610.07c.134-9.723 2.802-18.717 8.586-27.957l23.286-23.504m416.955-417.313c14.387-14.252 22.518-20.927 28.986-24.807 10.445-3.661 20.401-4.448 82.135-2.937"/><path d="M658.652 115.285q20.752-3.053 61.698.765"/><circle cx="699.934" cy="317.238" r="64.921"/><path d="m899.777 241.116 1.558 264.132m-47.208 75.317L689.992 745.38m-25.286-501.77-.158 13.702m-46.24 560.223L453.215 983.243m-81.117 3.32L21.445 635.478m14.814-76.869 416.955-417.313m111.121-27.744 94.317 1.733"/></g></svg>

<svg xmlns="http://www.w3.org/2000/svg" width="1024" height="1024" viewBox="4.38700008392334 13.954723358154297 1014.6403198242188 996.0299682617188" class="colorable-icon" data-export-recolorable-svg="true" overflow="visible"><g fill="none" stroke="white" stroke-width="45" stroke-linecap="round" stroke-linejoin="round"><path d="M 747.706,361.105 C 681.463,296.231 675.835,287.763 664.548,257.312" data-line="nan" stroke-width="45.0"></path><path d="M 720.35,116.05 C 788.992,117.362 817.726,119.815 827.353,121.66 C 837.147,124.932 851.61,132.81 861.241,140.416 C 874.442,154.229 884.956,168.733 892.881,183.465 C 896.392,193.096 898.377,202.729 899.465,217.14 L 899.777,241.116" data-line="nan" stroke-width="45.0"></path><path d="M 664.706,243.61 C 661.151,231.418 658.417,216.818 657.232,197.932 C 658.166,184.708 660.118,173.366 664.659,155.315 L 679.404,112.232" data-line="nan" stroke-width="45.0"></path><path d="M 900.628,343.329 C 936.612,315.997 951.119,304.079 960.807,294.733 C 973.519,280.223 987.046,261.362 998.206,241.778 C 1006.894,222.312 1013.301,203.04 1017.67,183.75 C 1019.807,164.535 1019.486,145.246 1016.241,126.088 C 1010.697,106.921 1004.396,92.393 992.231,73.091 C 980.231,59.071 966.221,46.139 951.802,35.591 C 937.475,27.722 918.1,20.198 899.152,15.753 C 880.075,13.53 856.135,13.356 836.97,15.298 C 813.399,20.607 791.563,27.614 772.345,35.818 C 753.755,46.0 734.437,58.921 715.222,74.253 Q 704.521,84.45 679.404,112.232" data-line="nan" stroke-width="45.0"></path><path d="M 901.335,505.248 C 901.031,522.567 899.363,528.906 896.428,535.102 Q 886.914,547.361 854.127,580.565" data-line="nan" stroke-width="45.0"></path><path d="M 689.992,745.38 L 618.308,817.535" data-line="nan" stroke-width="45.0"></path><path d="M 453.215,983.243 C 437.84,999.516 432.407,1003.783 419.639,1009.67 C 412.47,1010.799 398.901,1008.794 391.367,1005.192 Q 384.561,999.564 372.098,986.563" data-line="nan" stroke-width="45.0"></path><path d="M 21.445,635.478 C 11.06,624.194 7.665,619.187 4.387,610.07 C 4.521,600.347 7.189,591.353 12.973,582.113 L 36.259,558.609" data-line="nan" stroke-width="45.0"></path><path d="M 453.214,141.296 C 467.601,127.044 475.732,120.369 482.2,116.489 C 492.645,112.828 502.601,112.041 564.335,113.552" data-line="nan" stroke-width="45.0"></path><path d="M 658.652,115.285 Q 679.404,112.232 720.35,116.05" data-line="nan" stroke-width="45.0"></path><circle cx="699.9344476119047" cy="317.2380181718902" r="64.92089548070354" data-line="0.0" stroke-width="45.0"></circle><path d="M 899.777,241.116 L 901.335,505.248" data-line="6.0" stroke-width="45.0"></path><path d="M 854.127,580.565 L 689.992,745.38" data-line="8.0" stroke-width="45.0"></path><path d="M 664.706,243.61 L 664.548,257.312" data-line="8.0" stroke-width="45.0"></path><path d="M 618.308,817.535 L 453.215,983.243" data-line="10.0" stroke-width="45.0"></path><path d="M 372.098,986.563 L 21.445,635.478" data-line="12.0" stroke-width="45.0"></path><path d="M 36.259,558.609 L 453.214,141.296" data-line="14.0" stroke-width="45.0"></path><path d="M 564.335,113.552 L 658.652,115.285" data-line="16.0" stroke-width="45.0"></path></g></svg>
